X: 100257
T: RINETTAN'S DAUGHTER -- Strathspey
R: strathspey
B: K\"ohler's Violin Repository, v.3, 1885 p.197 #2
F: http://www.archive.org/details/klersviolinrepos03rugg
Z: 2012 John Chambers <jc:trillian.mit.edu>
M: C|
L: 1/8
K: C
uc |\
(E/F/G) (c>G) A2(A<d) | c<GA>G (c>G)E2 | (.G>.A)(c>G) A/A/A (A>B) | (.c>.d) (e>d) cAA :|
ua |\
(g>e) (e<a) (.g>.e) (e>d) | c<GA>G (c>G)E2 | (.G>.A)(c>G) A/A/A (A>B) | (.c>.d)(e>d) c>AAa |
(g<e) (e<a) (.g>.e) (e>d) | e>(G"^>"G>B) (c>G)E2 | (.G>.A)(c>G) A/A/A (A>B) | c>d(e<g) (d<e)"_Segue Reel.""^D.C."c |]

%%sep 2 1 500

